icons/square/48/kbruch.svg

<svg width="48" height="48" version="1.1" viewBox="0 0 48 48.000001" xmlns="http://www.w3.org/2000/svg">
 <defs>
  <linearGradient id="linearGradient4501" x1="-47" x2="-1" y1="2.8779e-15" y2="6.1232e-17" gradientUnits="userSpaceOnUse">
   <stop style="stop-color:#e4e4e4" offset="0"/>
   <stop style="stop-color:#eee" offset="1"/>
  </linearGradient>
 </defs>
 <g transform="translate(0 3.949e-5)">
  <path d="m1 43v0.25c0 2.216 1.784 4 4 4h38c2.216 0 4-1.784 4-4v-0.25c0 2.216-1.784 4-4 4h-38c-2.216 0-4-1.784-4-4zm0 0.5v0.5c0 2.216 1.784 4 4 4h38c2.216 0 4-1.784 4-4v-0.5c0 2.216-1.784 4-4 4h-38c-2.216 0-4-1.784-4-4z" style="opacity:.02"/>
  <path d="m1 43.25v0.25c0 2.216 1.784 4 4 4h38c2.216 0 4-1.784 4-4v-0.25c0 2.216-1.784 4-4 4h-38c-2.216 0-4-1.784-4-4z" style="opacity:.05"/>
  <path d="m1 43v0.25c0 2.216 1.784 4 4 4h38c2.216 0 4-1.784 4-4v-0.25c0 2.216-1.784 4-4 4h-38c-2.216 0-4-1.784-4-4z" style="opacity:.1"/>
 </g>
 <rect transform="rotate(-90)" x="-47" y="1" width="46" height="46" rx="4" style="fill:url(#linearGradient4501)"/>
 <path d="m8.002 1v5.5l-0.00195 0.00195v0.5h-7v1.002l7-0.00195v7h-7v1h6.998v7h-6.998v1h6.998v7h-6.998v1h6.998v7l-6.998-2e-3v1.002h7v6.998h1l-0.00195-5.5645 0.00391 0.0039v-1.4375h6.9961v6.998h1.0039v-6.9961h6.9961v6.9961h1v-6.998h7v6.998h1v-6.9961l7-0.0039v0.5l2e-3 -2e-3v6.502h1v-7h6v-1h-6l-2e-3 -6.9961h6.002v-1.0039h-6.002v-6.9961h6.002v-1.0039h-6.002v-6.9961h6.002v-1.0039h-6l2e-3 -6.9961h5.998v-1h-5.998v-6.0039h-1v5.5098l-0.0059-0.00586v0.5l-6.9961-0.00391v-6h-1.0039v6.002h-6.9961v-6.002h-1v6h-7v-6h-1v6.002h-7v-1.4395l0.00195-4.5625h-1zm1 7.0039h6.998v6.9961h-6.998zm8 0h6.998v6.9961h-6.998zm8 0h6.998v6.9961h-6.998zm8 0h6.998v6.9961h-6.998zm-24 8h6.998v6.9961h-6.998zm8 0h6.998v6.9961h-6.998zm8 0h6.998v6.9961h-6.998zm8 0h6.998v6.9961h-6.998zm-24 8h6.998v6.9961h-6.998zm8 0h6.998v6.9961h-6.998zm8 0h6.998v6.9961h-6.998zm8 0h6.998v6.9961h-6.998zm-24 8h6.998v6.9961h-6.998zm8 0h6.998v6.9961h-6.998zm8 0h6.998v6.9961h-6.998zm8 0h6.998v6.9961h-6.998z" style="fill:#a0dad0"/>
 <g transform="translate(0 3.949e-5)">
  <g transform="translate(0 -1004.4)">
   <path d="m1 1043.4v4c0 2.216 1.784 4 4 4h38c2.216 0 4-1.784 4-4v-4c0 2.216-1.784 4-4 4h-38c-2.216 0-4-1.784-4-4z" style="opacity:.1"/>
  </g>
 </g>
 <circle cx="24" cy="24" r="15" style="opacity:.1"/>
 <path d="m24 8c8.284 0 15 6.716 15 15-5.07 1.67-10.1 2.308-15 0-1.665-4.893-3.374-9.782 0-15z" style="fill:#e5e45f"/>
 <path d="m39 23c0 5.359-2.859 10.311-7.5 12.99s-10.359 2.679-15 0c1.875-4.486 0.544-9.774 7.5-12.99" style="fill:#89aacf"/>
 <path d="m13.393 12.393c2.813-2.813 6.628-4.393 10.607-4.393v15c-4.01-3.082-9.629-4.641-10.607-10.607" style="fill:#65d379"/>
 <path d="m16.5 35.99a15 15 0 0 1 -7.372 -11.032 15 15 0 0 1 4.265 -12.565l10.607 10.607" style="fill:#ee7f6a"/>
 <path d="m23 13v8h2v-8zm-5 10v2h12v-2zm3.166 3.75-1.416 1.416 2.834 2.834-2.834 2.834 1.416 1.416 2.834-2.834 2.834 2.834 1.416-1.416-2.834-2.834 2.834-2.834-1.416-1.416-2.834 2.834-2.834-2.834" style="opacity:.1"/>
 <g transform="translate(.00039416 -1)" style="fill:#4d4d4d">
  <rect x="18" y="23" width="12" height="2"/>
  <path d="m22 13v2h1v6h2v-8h-3z"/>
  <rect transform="rotate(45)" x="37.889" y="-.059" width="2" height="10.02"/>
  <rect transform="rotate(135)" x="3.948" y="-43.9" width="2" height="10.02"/>
 </g>
</svg>

<svg width="48" height="48" viewBox="0 0 48 48.000001" xmlns="http://www.w3.org/2000/svg">
  <defs>
    <linearGradient id="a" x1="-47" x2="-1" gradientUnits="userSpaceOnUse">
      <stop offset="0" stop-color="#e4e4e4"/>
      <stop offset="1" stop-color="#eee"/>
    </linearGradient>
  </defs>
  <path d="M1 43v.25c0 2.216 1.784 4 4 4h38c2.216 0 4-1.784 4-4V43c0 2.216-1.784 4-4 4H5c-2.216 0-4-1.784-4-4zm0 .5v.5c0 2.216 1.784 4 4 4h38c2.216 0 4-1.784 4-4v-.5c0 2.216-1.784 4-4 4H5c-2.216 0-4-1.784-4-4z" opacity=".02"/>
  <path d="M1 43.25v.25c0 2.216 1.784 4 4 4h38c2.216 0 4-1.784 4-4v-.25c0 2.216-1.784 4-4 4H5c-2.216 0-4-1.784-4-4z" opacity=".05"/>
  <path d="M1 43v.25c0 2.216 1.784 4 4 4h38c2.216 0 4-1.784 4-4V43c0 2.216-1.784 4-4 4H5c-2.216 0-4-1.784-4-4z" opacity=".1"/>
  <rect transform="rotate(-90)" x="-47" y="1" width="46" height="46" rx="4" fill="url(#a)"/>
  <path d="M8.002 1v5.5L8 6.502v.5H1v1.002l7-.002v7H1v1h6.998v7H1v1h6.998v7H1v1h6.998v7L1 39v1.002h7V47h1l-.002-5.565.004.004v-1.437h6.996V47h1.004v-6.996h6.996V47h1v-6.998h7V47h1v-6.996l7-.004v.5l.002-.002V47h1v-7h6v-1h-6l-.002-6.996H47V31h-6.002v-6.996H47V23h-6.002v-6.996H47V15h-6l.002-6.996H47v-1h-5.998V1h-1v5.51l-.006-.006v.5L33 7V1h-1.004v6.002H25V1h-1v6h-7V1h-1v6.002H9v-1.44L9.002 1h-1zm1 7.004H16V15H9.002zm8 0H24V15h-6.998zm8 0H32V15h-6.998zm8 0H40V15h-6.998zm-24 8H16V23H9.002zm8 0H24V23h-6.998zm8 0H32V23h-6.998zm8 0H40V23h-6.998zm-24 8H16V31H9.002zm8 0H24V31h-6.998zm8 0H32V31h-6.998zm8 0H40V31h-6.998zm-24 8H16V39H9.002zm8 0H24V39h-6.998zm8 0H32V39h-6.998zm8 0H40V39h-6.998z" fill="#a0dad0"/>
  <path d="M1 39v4c0 2.216 1.784 4 4 4h38c2.216 0 4-1.784 4-4v-4c0 2.216-1.784 4-4 4H5c-2.216 0-4-1.784-4-4z" opacity=".1"/>
  <circle cx="24" cy="24" r="15" opacity=".1"/>
  <path d="M24 8c8.284 0 15 6.716 15 15-5.07 1.67-10.1 2.308-15 0-1.665-4.893-3.374-9.782 0-15z" fill="#e5e45f"/>
  <path d="M39 23a14.999 14.999 0 0 1-22.5 12.99c1.875-4.486.544-9.774 7.5-12.99" fill="#89aacf"/>
  <path d="M13.393 12.393A15 15 0 0 1 24 8v15c-4.01-3.082-9.629-4.641-10.607-10.607" fill="#65d379"/>
  <path d="M16.5 35.99a15 15 0 0 1-7.372-11.032 15 15 0 0 1 4.265-12.565L24 23" fill="#ee7f6a"/>
  <path d="M23 13v8h2v-8zm-5 10v2h12v-2zm3.166 3.75l-1.416 1.416L22.584 31l-2.834 2.834 1.416 1.416L24 32.416l2.834 2.834 1.416-1.416L25.416 31l2.834-2.834-1.416-1.416L24 29.584l-2.834-2.834" opacity=".1"/>
  <g fill="#4d4d4d">
    <path d="M18 22h12v2H18zM22 12v2h1v6h2v-8h-3zM26.834 25.75l1.414 1.414-7.085 7.085-1.415-1.414z"/>
    <path d="M28.25 32.834l-1.413 1.414-7.086-7.085 1.415-1.415z"/>
  </g>
</svg>
